**harm	**harte	**timestamp	**phrase	**leadinstrument	**kern
*M4/4	*M4/4	*	*	*	*
*C:	*C:	*	*	*	*C:
1r;	N	0	.	r	1r;
=1	=1	=1	=1	=1	=1
*>A_intro	*>A_intro	*>A_intro	*>A_intro	*>A_intro	*>A_intro
1I	C:maj	0.493	newline	guitar	1C 1e 1g
=2	=2	=2	=2	=2	=2
1I	C:maj	2.558	.	guitar	1C 1e 1g
=3	=3	=3	=3	=3	=3
1I	C:maj	4.623	.	guitar	1C 1e 1g
=4	=4	=4	=4	=4	=4
1I	C:maj	6.688	.	guitar	1C 1e 1g
=5	=5	=5	=5	=5	=5
1r	N	8.752	newline	voice	1r
=6	=6	=6	=6	=6	=6
1r	N	10.849	.	voice	1r
=7	=7	=7	=7	=7	=7
*>B2_intro	*>B2_intro	*>B2_intro	*>B2_intro	*>B2_intro	*>B2_intro
1I	C:maj	12.945	newline	guitar	1C 1e 1g
=8	=8	=8	=8	=8	=8
1iii7	E:min7	15.074	.	guitar	1E 1g 1b 1dd
=9	=9	=9	=9	=9	=9
1vi	A:min	17.204	.	guitar	1A 1cc 1ee
=10	=10	=10	=10	=10	=10
1IV	F:maj	19.333	.	guitar	1F 1a 1cc
=11	=11	=11	=11	=11	=11
1ii	D:min	21.462	newline	guitar	1D 1f 1a
=12	=12	=12	=12	=12	=12
1I	C:maj	23.645	.	guitar	1C 1e 1g
=13	=13	=13	=13	=13	=13
1I	C:maj	25.827	.	guitar	1C 1e 1g
=14	=14	=14	=14	=14	=14
*>B_verse	*>B_verse	*>B_verse	*>B_verse	*>B_verse	*>B_verse
1I	C:maj	28.01	newline	voice	1C 1e 1g
=15	=15	=15	=15	=15	=15
1iii7	E:min7	30.101	.	voice	1E 1g 1b 1dd
=16	=16	=16	=16	=16	=16
1vi	A:min	32.192	.	voice	1A 1cc 1ee
=17	=17	=17	=17	=17	=17
1IV	F:maj	34.284	.	voice	1F 1a 1cc
=18	=18	=18	=18	=18	=18
1I	C:maj	36.375	newline	voice	1C 1e 1g
=19	=19	=19	=19	=19	=19
1I	C:maj	38.479	.	voice	1C 1e 1g
=20	=20	=20	=20	=20	=20
*>C_transition	*>C_transition	*>C_transition	*>C_transition	*>C_transition	*>C_transition
1iii	E:min	40.584	newline	voice	1E 1g 1b
=21	=21	=21	=21	=21	=21
1IV	F:maj	42.692	.	voice	1F 1a 1cc
=22	=22	=22	=22	=22	=22
1ii	D:min	44.801	.	voice	1D 1f 1a
=23	=23	=23	=23	=23	=23
1V	G:maj	46.909	.	voice	1G 1b 1dd
=24	=24	=24	=24	=24	=24
*>D_prechorus	*>D_prechorus	*>D_prechorus	*>D_prechorus	*>D_prechorus	*>D_prechorus
1I	C:maj	49.018	newline	voice	1C 1e 1g
=25	=25	=25	=25	=25	=25
1IV	F:maj	51.11	.	voice	1F 1a 1cc
=26	=26	=26	=26	=26	=26
1I	C:maj	53.202	.	voice	1C 1e 1g
=27	=27	=27	=27	=27	=27
1IV	F:maj	55.294	.	voice	1F 1a 1cc
=28	=28	=28	=28	=28	=28
1ii	D:min	57.387	newline	voice	1D 1f 1a
=29	=29	=29	=29	=29	=29
1V	G:maj	59.571	.	voice	1G 1b 1dd
=30	=30	=30	=30	=30	=30
*>B2_chorus	*>B2_chorus	*>B2_chorus	*>B2_chorus	*>B2_chorus	*>B2_chorus
1I	C:maj	61.755	newline	voice	1C 1e 1g
=31	=31	=31	=31	=31	=31
1iii7	E:min7	63.862	.	voice	1E 1g 1b 1dd
=32	=32	=32	=32	=32	=32
1vi	A:min	65.969	.	voice	1A 1cc 1ee
=33	=33	=33	=33	=33	=33
1IV	F:maj	68.076	.	voice	1F 1a 1cc
=34	=34	=34	=34	=34	=34
1ii	D:min	70.183	newline	voice	1D 1f 1a
=35	=35	=35	=35	=35	=35
1I	C:maj	72.316	.	voice	1C 1e 1g
=36	=36	=36	=36	=36	=36
1I	C:maj	74.45	.	voice	1C 1e 1g
=37	=37	=37	=37	=37	=37
*>E_bridge	*>E_bridge	*>E_bridge	*>E_bridge	*>E_bridge	*>E_bridge
1IV	F:maj	76.583	newline	voice	1F 1a 1cc
=38	=38	=38	=38	=38	=38
1-III	E-:maj	78.681	.	voice	1E- 1g 1b-
=39	=39	=39	=39	=39	=39
1IV	F:maj	80.778	.	voice	1F 1a 1cc
=40	=40	=40	=40	=40	=40
1-III	E-:maj	82.876	.	voice	1E- 1g 1b-
=41	=41	=41	=41	=41	=41
1-III	E-:maj	84.973	newline	voice	1E- 1g 1b-
=42	=42	=42	=42	=42	=42
1iii	E:min	87.161	.	voice	1E 1g 1b
=43	=43	=43	=43	=43	=43
1iii	E:min	89.349	.	voice	1E 1g 1b
=44	=44	=44	=44	=44	=44
*>F_bridge	*>F_bridge	*>F_bridge	*>F_bridge	*>F_bridge	*>F_bridge
1V	G:maj	91.537	newline	voice	1G 1b 1dd
=45	=45	=45	=45	=45	=45
1iii	E:min	93.612	.	voice	1E 1g 1b
=46	=46	=46	=46	=46	=46
1V	G:maj	95.687	.	voice	1G 1b 1dd
=47	=47	=47	=47	=47	=47
1iii	E:min	97.762	.	voice	1E 1g 1b
=48	=48	=48	=48	=48	=48
1-III	E-:maj	99.837	newline	voice	1E- 1g 1b-
=49	=49	=49	=49	=49	=49
1-III	E-:maj	102.003	.	voice	1E- 1g 1b-
=50	=50	=50	=50	=50	=50
1-VI	A-:maj	104.17	.	voice	1A- 1cc 1ee-
=51	=51	=51	=51	=51	=51
1-VI	A-:maj	106.337	.	voice	1A- 1cc 1ee-
=52	=52	=52	=52	=52	=52
*>B2_solo	*>B2_solo	*>B2_solo	*>B2_solo	*>B2_solo	*>B2_solo
1V	G:maj	108.503	newline	guitar	1G 1b 1dd
=53	=53	=53	=53	=53	=53
1V	G:maj	110.654	.	guitar	1G 1b 1dd
=54	=54	=54	=54	=54	=54
1vi	A:min	112.804	.	guitar	1A 1cc 1ee
=55	=55	=55	=55	=55	=55
1IV	F:maj	114.954	.	guitar	1F 1a 1cc
=56	=56	=56	=56	=56	=56
1ii	D:min	117.104	newline	guitar	1D 1f 1a
=57	=57	=57	=57	=57	=57
1I	C:maj	119.217	.	guitar	1C 1e 1g
=58	=58	=58	=58	=58	=58
1I	C:maj	121.33	.	guitar	1C 1e 1g
=59	=59	=59	=59	=59	=59
*>B_verse	*>B_verse	*>B_verse	*>B_verse	*>B_verse	*>B_verse
1I	C:maj	123.443	newline	voice	1C 1e 1g
=60	=60	=60	=60	=60	=60
1iii7	E:min7	125.57	.	voice	1E 1g 1b 1dd
=61	=61	=61	=61	=61	=61
1vi	A:min	127.698	.	voice	1A 1cc 1ee
=62	=62	=62	=62	=62	=62
1IV	F:maj	129.825	.	voice	1F 1a 1cc
=63	=63	=63	=63	=63	=63
1I	C:maj	131.953	newline	voice	1C 1e 1g
=64	=64	=64	=64	=64	=64
1I	C:maj	134.068	.	voice	1C 1e 1g
=65	=65	=65	=65	=65	=65
*>C_transition	*>C_transition	*>C_transition	*>C_transition	*>C_transition	*>C_transition
1iii	E:min	136.184	newline	voice	1E 1g 1b
=66	=66	=66	=66	=66	=66
1IV	F:maj	138.297	.	voice	1F 1a 1cc
=67	=67	=67	=67	=67	=67
1ii	D:min	140.41	.	voice	1D 1f 1a
=68	=68	=68	=68	=68	=68
1V	G:maj	142.523	.	voice	1G 1b 1dd
=69	=69	=69	=69	=69	=69
*>D_prechorus	*>D_prechorus	*>D_prechorus	*>D_prechorus	*>D_prechorus	*>D_prechorus
1I	C:maj	144.636	newline	voice	1C 1e 1g
=70	=70	=70	=70	=70	=70
1IV	F:maj	146.776	.	voice	1F 1a 1cc
=71	=71	=71	=71	=71	=71
1I	C:maj	148.915	.	voice	1C 1e 1g
=72	=72	=72	=72	=72	=72
1IV	F:maj	151.055	.	voice	1F 1a 1cc
=73	=73	=73	=73	=73	=73
1ii	D:min	153.195	newline	voice	1D 1f 1a
=74	=74	=74	=74	=74	=74
1V	G:maj	155.31	.	voice	1G 1b 1dd
=75	=75	=75	=75	=75	=75
*>B2_chorus	*>B2_chorus	*>B2_chorus	*>B2_chorus	*>B2_chorus	*>B2_chorus
1I	C:maj	157.425	newline	voice	1C 1e 1g
=76	=76	=76	=76	=76	=76
1iii7	E:min7	159.561	.	voice	1E 1g 1b 1dd
=77	=77	=77	=77	=77	=77
1vi	A:min	161.697	.	voice	1A 1cc 1ee
=78	=78	=78	=78	=78	=78
1IV	F:maj	163.833	.	voice	1F 1a 1cc
=79	=79	=79	=79	=79	=79
1ii	D:min	165.969	newline	voice	1D 1f 1a
=80	=80	=80	=80	=80	=80
1I	C:maj	168.063	.	voice	1C 1e 1g
=81	=81	=81	=81	=81	=81
1I	C:maj	170.158	.	voice	1C 1e 1g
=82	=82	=82	=82	=82	=82
*>E_interlude	*>E_interlude	*>E_interlude	*>E_interlude	*>E_interlude	*>E_interlude
1IV	F:maj	172.252	newline	voice	1F 1a 1cc
=83	=83	=83	=83	=83	=83
1-III	E-:maj	174.366	.	voice	1E- 1g 1b-
=84	=84	=84	=84	=84	=84
1IV	F:maj	176.479	.	voice	1F 1a 1cc
=85	=85	=85	=85	=85	=85
1-III	E-:maj	178.593	.	voice	1E- 1g 1b-
=86	=86	=86	=86	=86	=86
1-III	E-:maj	180.706	newline	voice	1E- 1g 1b-
=87	=87	=87	=87	=87	=87
1iii	E:min	182.83	.	voice	1E 1g 1b
=88	=88	=88	=88	=88	=88
1iii	E:min	184.954	.	voice	1E 1g 1b
=89	=89	=89	=89	=89	=89
*>F_solo	*>F_solo	*>F_solo	*>F_solo	*>F_solo	*>F_solo
1V	G:maj	187.077	newline	guitar	1G 1b 1dd
=90	=90	=90	=90	=90	=90
1iii	E:min	189.215	.	guitar	1E 1g 1b
=91	=91	=91	=91	=91	=91
1V	G:maj	191.353	.	guitar	1G 1b 1dd
=92	=92	=92	=92	=92	=92
1iii	E:min	193.491	.	guitar	1E 1g 1b
=93	=93	=93	=93	=93	=93
1-III	E-:maj	195.629	newline	guitar	1E- 1g 1b-
=94	=94	=94	=94	=94	=94
1-III	E-:maj	197.743	.	guitar	1E- 1g 1b-
=95	=95	=95	=95	=95	=95
1-VI	A-:maj	199.857	.	guitar	1A- 1cc 1ee-
=96	=96	=96	=96	=96	=96
1-VI	A-:maj	201.971	.	guitar	1A- 1cc 1ee-
=97	=97	=97	=97	=97	=97
*>B2_outro	*>B2_outro	*>B2_outro	*>B2_outro	*>B2_outro	*>B2_outro
1I	C:maj	204.086	newline	voice	1C 1e 1g
=98	=98	=98	=98	=98	=98
1iii	E:min	206.204	.	voice	1E 1g 1b
=99	=99	=99	=99	=99	=99
1vi	A:min	208.323	.	voice	1A 1cc 1ee
=100	=100	=100	=100	=100	=100
1IV	F:maj	210.442	.	voice	1F 1a 1cc
=101	=101	=101	=101	=101	=101
1ii	D:min	212.561	.	voice	1D 1f 1a
=102	=102	=102	=102	=102	=102
1I	C:maj	214.68	.	voice	1C 1e 1g
=103	=103	=103	=103	=103	=103
1iii	E:min	216.799	.	voice	1E 1g 1b
=104	=104	=104	=104	=104	=104
1vi	A:min	218.918	.	voice	1A 1cc 1ee
=105	=105	=105	=105	=105	=105
1IV	F:maj	221.037	.	voice	1F 1a 1cc
=106	=106	=106	=106	=106	=106
1ii	D:min	223.155	.	voice	1D 1f 1a
=107	=107	=107	=107	=107	=107
1r	N	225.274	newline	voice	1r
=108	=108	=108	=108	=108	=108
*>G_interlude	*>G_interlude	*>G_interlude	*>G_interlude	*>G_interlude	*>G_interlude
1r	N	227.392	newline	drums	1r
=109	=109	=109	=109	=109	=109
1r	N	229.531	.	drums	1r
=110	=110	=110	=110	=110	=110
1r	N	231.669	.	drums	1r
=111	=111	=111	=111	=111	=111
1r	N	233.808	.	drums	1r
=112	=112	=112	=112	=112	=112
1r	N	235.947	newline	voice	1r
=113	=113	=113	=113	=113	=113
1r	N	238.057	.	voice	1r
=114	=114	=114	=114	=114	=114
1r	N	240.167	.	voice	1r
=115	=115	=115	=115	=115	=115
1r	N	242.277	.	voice	1r
=116	=116	=116	=116	=116	=116
1r	N	244.387	.	voice	1r
=117	=117	=117	=117	=117	=117
*>B2_outro	*>B2_outro	*>B2_outro	*>B2_outro	*>B2_outro	*>B2_outro
1I	C:maj	246.497	newline	voice	1C 1e 1g
=118	=118	=118	=118	=118	=118
1iii7	E:min7	248.619	.	voice	1E 1g 1b 1dd
=119	=119	=119	=119	=119	=119
1vi	A:min	250.741	.	voice	1A 1cc 1ee
=120	=120	=120	=120	=120	=120
1IV	F:maj	252.863	.	voice	1F 1a 1cc
=121	=121	=121	=121	=121	=121
1ii	D:min	254.985	.	voice	1D 1f 1a
=122	=122	=122	=122	=122	=122
1I	C:maj	257.107	.	voice	1C 1e 1g
=123	=123	=123	=123	=123	=123
1iii7	E:min7	259.229	.	voice	1E 1g 1b 1dd
=124	=124	=124	=124	=124	=124
1vi	A:min	261.351	.	voice	1A 1cc 1ee
=125	=125	=125	=125	=125	=125
1IV	F:maj	263.473	.	voice	1F 1a 1cc
=126	=126	=126	=126	=126	=126
1ii	D:min	265.595	.	voice	1D 1f 1a
=127	=127	=127	=127	=127	=127
1I	C:maj	267.717	newline	fadeout voice	1C 1e 1g
=128	=128	=128	=128	=128	=128
1iii7	E:min7	269.206	.	fadeout voice	1E 1g 1b 1dd
=129	=129	=129	=129	=129	=129
1vi	A:min	270.695	.	fadeout voice	1A 1cc 1ee
=130	=130	=130	=130	=130	=130
1IV	F:maj	272.184	.	fadeout voice	1F 1a 1cc
=131	=131	=131	=131	=131	=131
1ii	D:min	273.674	.	fadeout voice	1D 1f 1a
=132	=132	=132	=132	=132	=132
1I	C:maj	275.163	.	fadeout voice	1C 1e 1g
=133	=133	=133	=133	=133	=133
1iii7	E:min7	276.652	.	fadeout voice	1E 1g 1b 1dd
=134	=134	=134	=134	=134	=134
1vi	A:min	278.141	.	fadeout voice	1A 1cc 1ee
=135	=135	=135	=135	=135	=135
1IV	F:maj	279.63	.	fadeout voice	1F 1a 1cc
=136	=136	=136	=136	=136	=136
1ii	D:min	281.119	.	fadeout voice	1D 1f 1a
1r;	N	282.608	.	r	1r;
1r;	N	283.167	.	r	1r;
*-	*-	*-	*-	*-	*-
!!!OTL: Press
!!!COC: Paul McCartney
!!!BillboardChartDate: 1986/08/23
!!!BillboardPeak: 21
!!!BillboardWeeksOnChart: 11
!!!SampleTargetRank: 39
!!!SampleActualRank: 39
!!!SampleID#: 0772
!!!RDF**harmony: **recip + pitch class of root + harmonic quality
!!!RDF**harte: Chris Harte's syntax, used by MIREX
!!!RDF**phrase: newline = linebreak in original McGill transcription
!!!RDF**timestamp: McGill audio timestamp in seconds
!!!RDF**leadinstrument: original McGill primary instrumentation annotation
!!!RDT: 2017/01/12/
!!!ENC: Nathaniel Condit-Schultz
!!!EST: Awating manual error checking and editing.
